projects/ccf-eui/src/assets/icons/organ-icons/organ-icon-breast.svg

<svg width="64" height="64" viewBox="0 0 64 64" fill="currentColor" xmlns="http://www.w3.org/2000/svg">
<g clip-path="url(#clip0_1795_220)">
<g clip-path="url(#clip1_1795_220)">
<path d="M61.586 32.6954C59.5313 32.1674 57.808 30.7815 56.9022 28.8676C55.8417 26.1838 47.181 16.8785 39.2272 12.1488C32.5771 8.29903 28.1142 1.58949 27.1199 -6H21L21.707 45.4985C21.7512 48.0943 30.3456 51.2621 30.3456 51.2621C32.5992 51.9441 34.8969 52.472 37.2167 52.846C46.4298 53.726 52.1962 50.9541 56.6149 42.4187C57.1231 41.0108 58.7138 38.811 60.0836 38.547C61.0337 38.459 61.8953 37.953 62.4477 37.1611C63.4419 35.6872 63.0663 33.7073 61.586 32.6954ZM41.6575 20.2222C41.8343 20.0022 42.0773 19.9142 42.3645 19.9142C42.3866 19.9142 42.4087 19.9142 42.4529 19.9142C43.4029 19.9582 44.7065 20.9702 45.6786 22.4221C46.1205 23.082 46.7833 23.61 47.424 24.116C48.0868 24.6439 48.7275 25.1499 48.8822 25.6559C49.081 26.4478 48.8822 27.3277 48.3961 27.9657C47.7112 28.7576 45.9658 27.9877 43.3588 25.7658C42.5855 24.8859 42.011 23.83 41.7238 22.6861V22.6201C41.282 21.8501 41.282 20.9482 41.6575 20.2222ZM29.3514 25.8538C29.3956 25.6339 29.5723 25.4579 29.8595 25.3039C30.2572 25.1059 30.8538 24.9739 31.6049 24.9739C32.5992 24.9739 33.8364 25.1939 35.1399 25.7219C36.0679 26.0958 37.1725 26.2498 38.2109 26.3818C39.2714 26.5358 40.2877 26.6678 40.8401 27.0198C41.6134 27.5257 42.0773 28.4277 42.0331 29.3296C41.9227 29.9456 40.9064 30.8255 35.0957 29.9456C33.6817 29.5936 32.3119 28.9116 31.141 27.9657L30.8759 27.8117C29.727 27.1518 29.1305 26.7778 29.3514 25.8318V25.8538ZM42.2762 32.3434C42.8506 32.3434 43.5134 32.4754 44.1983 32.7174C44.9274 32.9814 45.6786 32.9154 46.3414 32.8494C46.96 32.7834 47.5124 32.7394 47.8217 32.9594C48.3961 33.4653 48.7275 34.1913 48.7496 34.9612C48.7496 35.2252 48.6612 35.4232 48.4845 35.5992C47.91 36.1711 46.4298 36.4131 44.1762 36.3251C43.1599 36.1491 42.2099 35.6872 41.4366 34.9832L41.3703 34.9392C40.7959 34.6752 40.4866 34.0373 40.6191 33.3993C40.6191 33.0694 40.7738 32.8274 41.0389 32.6514C41.3482 32.4534 41.768 32.3434 42.2983 32.3434H42.2762ZM28.8874 37.755C28.8874 36.5011 30.5224 35.8192 32.0247 35.8192H32.0468C32.4445 35.8192 32.8643 35.8632 33.262 35.9512H33.7038C34.9411 36.2371 35.7144 36.4131 37.5481 36.8971C38.7191 37.2931 39.6691 38.195 40.0889 39.3609C40.2215 39.8669 40.0889 40.4169 39.7354 40.8128C38.8075 41.7148 37.5481 42.1987 36.2446 42.1107C35.7144 42.1107 35.2062 42.0448 34.6981 41.9348C33.5713 41.6488 32.4887 41.2748 31.4282 40.7908L30.9642 40.5928C29.6386 40.3289 28.7328 39.0969 28.8874 37.755ZM39.0947 45.4325C39.0063 45.7405 38.0784 46.5764 36.4876 47.1484C35.3388 47.5664 33.1515 48.0723 31.384 46.8624C30.5003 46.2465 29.5723 45.5205 29.4619 44.6406C29.4177 44.0686 29.6165 43.5846 30.0363 43.2327C30.5224 42.8147 31.2735 42.6167 32.1352 42.6167C32.5992 42.6167 33.1073 42.6827 33.6155 42.8147C34.4329 43.0347 35.3388 42.9027 36.1341 42.7707C36.9074 42.6607 37.6365 42.5507 38.0342 42.7707C38.8738 43.3867 39.2714 44.4426 39.0505 45.4545L39.0947 45.4325ZM50.1857 47.1264C49.6775 47.8084 48.9043 48.0503 48.2415 47.7864C47.0484 47.3244 45.767 47.8084 44.7507 48.2263C43.646 48.6663 43.182 48.7983 42.9611 48.3583C42.5413 47.5444 42.4308 46.8844 42.5855 46.3785C42.8285 45.6965 43.5576 45.3445 44.2204 45.0365C44.4193 44.9486 44.596 44.8606 44.7507 44.7726C46.6728 43.6726 47.7554 43.2547 48.4845 43.2547C49.2136 43.2547 49.6113 43.7166 50.1194 44.3766C50.9148 45.3885 50.6497 46.4884 50.1857 47.1264ZM60.2383 35.4892V35.6432V35.9512H60.2162V36.5891C59.9953 36.5891 59.7964 36.5891 59.5976 36.5891C58.4487 36.6551 57.2998 36.8311 56.151 37.0511C55.7533 37.4251 55.3777 38.481 55.0242 39.5809C54.3172 41.7368 53.4335 44.3986 51.1136 45.4325C51.0694 45.1025 50.9369 44.7506 50.738 44.3986C52.5718 43.5626 53.323 41.2748 53.9858 39.2509C54.1846 38.679 54.3614 38.151 54.5602 37.689C54.2951 37.909 54.03 38.217 53.7428 38.525C52.7044 39.6469 51.4229 41.0328 48.838 41.0328H48.7938C45.5018 41.5608 42.3204 42.9907 39.647 45.0805C39.6691 44.6626 39.647 44.2446 39.4924 43.8486C42.2099 41.8468 45.3693 40.4609 48.7054 39.9329C50.8927 39.9329 51.909 38.833 52.9032 37.755C53.5218 37.0951 54.0963 36.4791 54.8916 36.2151C54.7149 36.2151 54.516 36.2151 54.3614 36.2371C54.1625 36.3911 53.9637 36.5671 53.7428 36.7651C52.4392 37.887 50.8264 39.2729 48.2635 39.2729H48.2194C47.3135 39.4709 46.474 39.6689 45.7007 39.8449C43.9774 40.2409 42.6739 40.5488 41.1715 40.5488C40.9506 40.5488 40.7296 40.5488 40.5087 40.5048C40.6412 40.1749 40.6854 39.8009 40.6412 39.4049C42.2541 39.4929 43.5576 39.2069 45.4356 38.767C46.2088 38.591 47.0705 38.393 48.0868 38.173C50.031 38.173 51.3125 37.3151 52.3951 36.4131C51.5113 36.4131 50.495 36.1271 49.1694 35.2252C49.1694 35.1152 49.2357 35.0272 49.2357 34.9172C49.2357 34.6312 49.1694 34.3453 49.081 34.0813L49.1915 33.9273C51.2683 35.5332 52.2846 35.3792 53.566 35.2032C53.6544 35.2032 53.7649 35.1812 53.8753 35.1592C53.9858 35.0712 54.1184 34.9832 54.2288 34.8952C53.323 34.4773 52.5055 33.9053 51.9753 33.0694C51.0694 31.6834 50.6938 31.5075 46.8937 30.9355C45.3251 30.8035 43.8006 30.2975 42.4087 29.4836C42.4087 29.4176 42.475 29.3736 42.4971 29.3076C42.4971 28.9116 42.4308 28.5157 42.2983 28.1417C43.7123 29.0876 45.3472 29.6816 47.0484 29.8356C50.8043 30.4075 51.7102 30.6055 52.9253 32.4534C53.5439 33.3993 54.6486 33.9713 55.8196 34.3013C55.9079 34.3013 56.0184 34.3013 56.1068 34.2793C56.0626 34.2793 56.0405 34.2573 55.9963 34.2353C55.0463 33.6633 54.8695 33.2453 54.6928 32.5854C54.5381 32.0794 54.3393 31.3755 53.1241 30.0556C51.7985 29.2196 50.3403 28.5597 48.838 28.0757C49.0589 27.7677 49.2136 27.4377 49.3019 27.0858C50.8706 27.5917 52.373 28.2737 53.7649 29.1536L53.8753 29.2416C55.3114 30.8035 55.5544 31.6834 55.7312 32.2774C55.8638 32.7394 55.9079 32.8934 56.5266 33.2673C57.6092 33.8173 58.8685 34.1253 60.1278 34.1253C60.1278 34.1253 60.172 34.1253 60.1941 34.1253L60.1278 34.6752V35.2252V35.4012L60.2383 35.4892Z" />
</g>
</g>
<defs>
<clipPath id="clip0_1795_220">
<rect width="64" height="64" />
</clipPath>
<clipPath id="clip1_1795_220">
<rect width="42" height="59"  transform="translate(21 -6)"/>
</clipPath>
</defs>
</svg>

<svg xmlns="http://www.w3.org/2000/svg" width="64" height="64" fill="currentColor" viewBox="0 0 64 64"><g clip-path="url(#a)"><g clip-path="url(#b)"><path d="M61.586 32.695c-2.055-.528-3.778-1.913-4.684-3.827-1.06-2.684-9.721-11.99-17.675-16.72A24.67 24.67 0 0 1 27.12-6H21l.707 51.499c.044 2.595 8.639 5.763 8.639 5.763a53 53 0 0 0 6.87 1.584c9.214.88 14.98-1.892 19.399-10.427.508-1.408 2.099-3.608 3.469-3.872a3.25 3.25 0 0 0 2.364-1.386 3.21 3.21 0 0 0-.862-4.466M41.658 20.222c.176-.22.42-.308.706-.308h.089c.95.044 2.253 1.056 3.226 2.508.441.66 1.104 1.188 1.745 1.694.663.528 1.303 1.034 1.458 1.54.199.792 0 1.672-.486 2.31-.685.792-2.43.022-5.037-2.2a7.4 7.4 0 0 1-1.635-3.08v-.066a2.5 2.5 0 0 1-.066-2.398M29.35 25.854c.045-.22.221-.396.509-.55.397-.198.994-.33 1.745-.33.994 0 2.231.22 3.535.748.928.374 2.032.528 3.07.66 1.061.154 2.078.286 2.63.638a2.65 2.65 0 0 1 1.193 2.31c-.11.616-1.127 1.496-6.937.616a10.3 10.3 0 0 1-3.955-1.98l-.265-.154c-1.149-.66-1.745-1.034-1.525-1.98zm12.925 6.49c.575 0 1.237.131 1.922.373.73.264 1.48.198 2.143.132.619-.066 1.171-.11 1.48.11.575.506.907 1.232.929 2.002a.85.85 0 0 1-.266.638c-.574.572-2.054.814-4.308.726a5.45 5.45 0 0 1-2.74-1.342l-.066-.044c-.574-.264-.883-.902-.75-1.54 0-.33.154-.572.419-.748.31-.198.729-.308 1.26-.308zm-13.389 5.411c0-1.254 1.635-1.936 3.138-1.936h.022c.398 0 .817.044 1.215.132h.442c1.237.286 2.01.462 3.844.946a4.08 4.08 0 0 1 2.54 2.464c.133.506 0 1.056-.353 1.452a4.57 4.57 0 0 1-3.49 1.298c-.53 0-1.039-.066-1.547-.176a19 19 0 0 1-3.27-1.144l-.464-.198a2.594 2.594 0 0 1-2.077-2.838m10.208 7.677c-.089.308-1.017 1.144-2.607 1.716-1.15.418-3.337.924-5.104-.286-.884-.616-1.812-1.342-1.922-2.221-.044-.572.154-1.056.574-1.408.486-.418 1.237-.616 2.1-.616.463 0 .971.066 1.48.198.817.22 1.723.088 2.518-.044.773-.11 1.502-.22 1.9 0a2.64 2.64 0 0 1 1.017 2.684zm11.09 1.694c-.508.682-1.28.924-1.944.66-1.193-.462-2.474.022-3.49.44-1.105.44-1.569.572-1.79.132-.42-.814-.53-1.474-.375-1.98.242-.681.972-1.034 1.634-1.342q.3-.13.53-.263c1.923-1.1 3.005-1.518 3.734-1.518s1.127.462 1.635 1.122c.796 1.011.53 2.111.067 2.75M60.239 35.49v.462h-.022v.638h-.618c-1.15.066-2.298.242-3.447.462-.398.374-.773 1.43-1.127 2.53-.707 2.156-1.59 4.818-3.91 5.851-.045-.33-.177-.681-.376-1.033 1.834-.836 2.585-3.124 3.248-5.148.199-.572.375-1.1.574-1.562-.265.22-.53.528-.817.836-1.039 1.122-2.32 2.508-4.905 2.508h-.044c-3.292.528-6.474 1.958-9.147 4.047.022-.417 0-.835-.155-1.231 2.718-2.002 5.877-3.388 9.213-3.916 2.188 0 3.204-1.1 4.198-2.178.619-.66 1.193-1.276 1.989-1.54-.177 0-.376 0-.53.022-.2.154-.398.33-.62.528-1.303 1.122-2.916 2.508-5.478 2.508h-.045c-.906.198-1.745.396-2.518.572-1.724.396-3.027.704-4.53.704-.22 0-.441 0-.662-.044.132-.33.176-.704.132-1.1 1.613.088 2.917-.198 4.795-.638.773-.176 1.635-.374 2.65-.594 1.945 0 3.227-.858 4.31-1.76-.885 0-1.901-.286-3.227-1.188 0-.11.067-.198.067-.308 0-.286-.067-.572-.155-.836l.11-.154c2.077 1.606 3.094 1.452 4.375 1.276.088 0 .199-.022.31-.044.11-.088.242-.176.353-.264-.906-.418-1.724-.99-2.254-1.826-.906-1.386-1.281-1.562-5.081-2.134-1.569-.131-3.093-.637-4.485-1.451 0-.066.066-.11.088-.176 0-.396-.066-.792-.199-1.166a10.2 10.2 0 0 0 4.75 1.694c3.756.572 4.662.77 5.877 2.617.619.946 1.724 1.518 2.895 1.848.088 0 .198 0 .287-.022-.044 0-.066-.022-.11-.044-.95-.572-1.127-.99-1.304-1.65-.155-.506-.354-1.21-1.569-2.53a19 19 0 0 0-4.286-1.98q.331-.46.464-.99a19.6 19.6 0 0 1 4.463 2.069l.11.088c1.436 1.561 1.68 2.441 1.856 3.035.133.462.177.616.796.99a8.04 8.04 0 0 0 3.6.858h.067l-.066.55v.726z"/></g></g><defs><clipPath id="a"><path d="M0 0h64v64H0z"/></clipPath><clipPath id="b"><path d="M21-6h42v59H21z"/></clipPath></defs></svg>
